X:1
T:Title
%%score { ( 1 3 ) | ( 2 4 ) }
L:1/8
Q:1/4=110
M:3/4
K:Bb
V:1 treble nm="Grand Piano"
V:3 treble 
V:2 bass 
V:4 bass 
V:1
 [DF]2 [B,D]2 [CE]2 | [DF]4 [DB]2 | [EB]4 [EA]2 | [EA]6 | A2 B2 c2 | e4 d2 | d4 z2 | [DB]4 z2 | %8
w: R.~Frank~Lehman * *||||||||
 [DB]2 [DA]2 [DB]2 | [Ec]4 [EB]2 | [B,FA]4 [B,EG]2 | [DF]6 | [DB]2 [EA]2 [F_A]2 | G4 G2 | F4 c2 | %15
w: |||||||
 [DB]4 z2 |] %16
w: |
V:2
 [B,,F,]2 [B,,F,]2 [B,,F,]2 | [B,,F,]4 [B,,F,]2 | [C,F,]4 [C,F,]2 | [C,F,]6 | %4
 [F,E]2 [F,G,E]2 [F,A,E]2 | [F,A,G]4 [F,B,F]2 | [F,F]4 [F,A,E]2 | [B,,B,]4 z2 | %8
 [B,,F,]2 [B,,F,]2 [B,,F,]2 | [E,G,]4 [E,G,]2 | E,4 E,G, | B,6 | [B,,F,]2 [C,F,]2 [D,B,]2 | %13
 [E,B,E]4 [=E,B,_D]2 | [B,D]2 z2 z2 | [B,,B,]4 z2 |] %16
V:3
 x6 | x6 | x6 | x6 | x6 | x6 | z2 G,2 c2 | x6 | x6 | x6 | x6 | x6 | x6 | x6 | z2 C2 z A, | x6 |] %16
V:4
 x6 | x6 | x6 | x6 | x6 | x6 | B,2 z2 z2 | x6 | x6 | x6 | x6 | x6 | x6 | x6 | %14
 F,2- [F,A,]2 .[F,G,E]2 | x6 |] %16

